X: 1
T: Koftos
O: Greece
Z: John Chambers <jc@trillian.mit.edu>, from a 1983 transcription by Bill Possi
N: On recording, guitar plays melody an octave down and has solo on endings.
D:
B:
M: C
L: 1/8
P: Clarinet
K: Edor
Acd \
|: "Em"e2 ed fg ag \
| Ta2 gf ~e A cd \
| e3 ~d f>g a>g \
| "G"Tg>f Bd ~g A c~d |
| "Em"e3 d ~fg ag \
| Ta2 gf ~e2 ze \
| ~g>~f e>g "D"~f>~e d>f \
|1 "Em"~ez z2 z4 \
:|2 "Em"~ez z2 z4 ||
|: "G"{d}b2 ~ba b>c' d'>~e' \
| d'>=c' ~ba ~gf ~ed \
| b2- ~ba b>c' d'>~e' \
| d'>=c' ~ba ~g2 z(d |
| b2)  ~ba b>c' d'>~e' \
| d'>=c' ~ba ~gf ~ed \
| ~g~f eg "D"~f~e df \
|1 "Em"ez z2 z4 \
:|2 "Em"~Hez z2 z4 |]
